X: 25102
T: Maighdeanan Na H-Àiridh
R: waltz
M: 3/4
K: Dmajor
P:vocal
DF|G3F ED|B,B,3 B,B,|B,3D DC|DD-D4-|D4DF|
G3F E>D|B,B,3 B,B,|B,3D DC|DD-D4-|D4DF|
FA-AA BG|EE3FA|AB-BA-AF|FAF2DD|
DD-DA FD|B,2C4|FD A,3B,|DC DD3-|D4||
P:instrumental
DF|G3F ED|B,4 DC|B,2D2 DC|D6-|D4DF|
G3F ED|B,4 DC|B,2D2 DC|D6-|D4DF|
A3A BG|E4FA|B3B AF|A4FE|D3A F/E/D|
B,2C4|FD A,3B,|DC D4-|D4||

